docs/.gitbook/assets/icon-hourglass-16@dark.svg

<svg width="32" height="32" viewBox="0 0 16 16" fill="none" xmlns="http://www.w3.org/2000/svg">
<rect x="0" y="0" width="16" height="16" fill="#181c1f"/>
<path fill-rule="evenodd" clip-rule="evenodd" d="M2 1.75C2 1.33579 2.33579 1 2.75 1H3.75H12.25H13.25C13.6642 1 14 1.33579 14 1.75C14 2.16421 13.6642 2.5 13.25 2.5H13V3.5C13 5.29432 12.0548 6.8679 10.6352 7.75C12.0548 8.6321 13 10.2057 13 12V13.5H13.25C13.6642 13.5 14 13.8358 14 14.25C14 14.6642 13.6642 15 13.25 15H12.25H3.75H2.75C2.33579 15 2 14.6642 2 14.25C2 13.8358 2.33579 13.5 2.75 13.5H3V12C3 10.2057 3.94517 8.6321 5.36479 7.75C3.94517 6.8679 3 5.29432 3 3.5V2.5H2.75C2.33579 2.5 2 2.16421 2 1.75ZM4.5 2.5V3.5C4.5 5.433 6.067 7 8 7C9.933 7 11.5 5.433 11.5 3.5V2.5H4.5ZM8 8.5C6.067 8.5 4.5 10.067 4.5 12V13.5H11.5V12C11.5 10.067 9.933 8.5 8 8.5Z" fill="#fff"/>
</svg>

<svg xmlns="http://www.w3.org/2000/svg" width="32" height="32" fill="none" viewBox="0 0 16 16"><path fill="#181c1f" d="M0 0h16v16H0z"/><path fill="#fff" fill-rule="evenodd" d="M2 1.75A.75.75 0 0 1 2.75 1h10.5a.75.75 0 0 1 0 1.5H13v1a5 5 0 0 1-2.365 4.25A5 5 0 0 1 13 12v1.5h.25a.75.75 0 0 1 0 1.5H2.75a.75.75 0 0 1 0-1.5H3V12c0-1.794.945-3.368 2.365-4.25A5 5 0 0 1 3 3.5v-1h-.25A.75.75 0 0 1 2 1.75m2.5.75v1a3.5 3.5 0 1 0 7 0v-1zm3.5 6A3.5 3.5 0 0 0 4.5 12v1.5h7V12A3.5 3.5 0 0 0 8 8.5" clip-rule="evenodd"/></svg>
